X: 609
P: Longways for as many as will
M: 6/8
L: 1/8
K: G
|: B/c/ |\
d>ed d>gd | c>dc c>ac | B>cB B>cd | A2A A2B/c/ |\
d>ed d>gd | c>dc c>ac | B>cd A>GF | G2G G2 :|

